X: 1128
T: An Amaid
R: reel
M: 4/4
K: Dminor
D2FD GDAd|D2FD GBAF|D2FD GDAc|1 BGAF DCFE:|2 BGAF Gfge||
|:afga gece|bagb agfe|BcdA dAGF|1 DEFG Eedf:|2 DEFG E4||

